X: 39256
T: Tail Toddle, The
R: reel
M: 4/4
K: Dmajor
d2 fd g2 fe|d2 fd e2 cA|d2 fd g2 fe|fgaf e2 cA:|
g2 dB B2 dB|g2 dB e2 cA|g2 dB B2 dB|A2 af e2 cA:|

